storage/app/icons/phosphoricons/duotone/bowl-food-duotone.svg

<svg xmlns="http://www.w3.org/2000/svg" fill="currentColor" viewBox="0 0 256 256"><path d="M224 112a96 96 0 0 1-56 87.3v8.7a8 8 0 0 1-8 8H96a8 8 0 0 1-8-8v-8.7A96 96 0 0 1 32 112Z" opacity=".2"/><path d="M224 104h-8.37a88 88 0 0 0-175.26 0H32a8 8 0 0 0-8 8 104.35 104.35 0 0 0 56 92.28V208a16 16 0 0 0 16 16h64a16 16 0 0 0 16-16v-3.72A104.35 104.35 0 0 0 232 112a8 8 0 0 0-8-8m-50.52-47.77q2.75 2.25 5.27 4.75a87.92 87.92 0 0 0-49.15 43h-29.5A72.26 72.26 0 0 1 168 56c1.83 0 3.66.09 5.48.23m15.91 18.2A71.45 71.45 0 0 1 199.54 104h-51.42a71.84 71.84 0 0 1 41.27-29.57M128 40a72 72 0 0 1 19 2.57A88.36 88.36 0 0 0 83.33 104H56.46A72.08 72.08 0 0 1 128 40m36.66 152a8 8 0 0 0-4.66 7.3v8.7H96v-8.7a8 8 0 0 0-4.66-7.3 88.29 88.29 0 0 1-51-72h175.29a88.29 88.29 0 0 1-50.97 72"/></svg>

<svg xmlns="http://www.w3.org/2000/svg" viewBox="0 0 256 256" fill="currentColor"><path d="M224,112a96,96,0,0,1-56,87.3V208a8,8,0,0,1-8,8H96a8,8,0,0,1-8-8v-8.7A96,96,0,0,1,32,112Z" opacity="0.2"/><path d="M224,104h-8.37a88,88,0,0,0-175.26,0H32a8,8,0,0,0-8,8,104.35,104.35,0,0,0,56,92.28V208a16,16,0,0,0,16,16h64a16,16,0,0,0,16-16v-3.72A104.35,104.35,0,0,0,232,112,8,8,0,0,0,224,104ZM173.48,56.23q2.75,2.25,5.27,4.75a87.92,87.92,0,0,0-49.15,43H100.1A72.26,72.26,0,0,1,168,56C169.83,56,171.66,56.09,173.48,56.23Zm15.91,18.2A71.45,71.45,0,0,1,199.54,104H148.12A71.84,71.84,0,0,1,189.39,74.43ZM128,40a71.87,71.87,0,0,1,19,2.57A88.36,88.36,0,0,0,83.33,104H56.46A72.08,72.08,0,0,1,128,40Zm36.66,152A8,8,0,0,0,160,199.3V208H96v-8.7A8,8,0,0,0,91.34,192a88.29,88.29,0,0,1-51-72H215.63A88.29,88.29,0,0,1,164.66,192Z"/></svg>
